packages/core/src/svgs/tokens/branded/JKL.svg

<svg width="24" height="24" viewBox="0 0 24 24" fill="none" xmlns="http://www.w3.org/2000/svg">
<path fill-rule="evenodd" clip-rule="evenodd" d="M5.39104 7.82281C5.37962 7.72566 5.36819 7.63424 5.39104 7.53709C5.39104 7.51995 5.39676 7.51424 5.40819 7.53709C5.52248 7.85709 5.61961 8.1828 5.69961 8.51423C5.72818 8.62851 5.76248 8.73137 5.80248 8.83993L5.85961 9.0228C6.02961 9.51211 6.27651 9.97117 6.59104 10.3828C6.59503 10.3836 6.59913 10.3834 6.60308 10.3824C6.60701 10.3814 6.61071 10.3796 6.61389 10.377C6.67103 10.32 6.70532 10.2628 6.75103 10.2L6.87674 10.0342L7.04817 9.82277L7.21959 9.59998C7.30531 9.51424 7.37959 9.42851 7.44816 9.33131L7.73388 9.00565L8.1053 8.61708C8.1853 8.53138 8.17388 8.42851 8.15673 8.33138C8.00273 7.45445 7.73975 6.60022 7.37389 5.78854C7.23102 5.46284 7.08817 5.13141 6.91674 4.81712C6.90878 4.79693 6.90878 4.77447 6.91674 4.75427C6.91674 4.71998 6.9396 4.71998 6.95674 4.74855L7.71674 5.74283C7.92245 6.0114 8.15673 6.39425 8.41958 6.8971C8.56815 7.17139 8.68815 7.45139 8.77958 7.73138C8.91672 8.15423 8.991 8.55993 8.99672 8.93708C9.00387 9.67957 8.7512 10.4012 8.28245 10.977C8.27839 10.9804 8.27336 10.9821 8.26816 10.9821C8.26297 10.9821 8.25793 10.9804 8.25388 10.977C8.24826 10.9721 8.24382 10.9658 8.24086 10.9589C8.2379 10.9521 8.23649 10.9446 8.23673 10.937C8.23912 10.7669 8.21601 10.5974 8.16816 10.4342C8.15714 10.4213 8.14209 10.4126 8.12546 10.4096C8.10884 10.4065 8.09165 10.409 8.07673 10.417C8.0253 10.4513 7.97959 10.4856 7.93388 10.5313C7.83101 10.6228 7.79673 10.6 7.83103 10.4628C7.87939 10.2721 7.95037 10.088 8.04245 9.91424C8.04265 9.91051 8.04165 9.90677 8.0396 9.90371C8.03753 9.90064 8.03452 9.89824 8.03101 9.89704H8.01958C7.97458 9.90971 7.93337 9.9333 7.89959 9.9657C7.43674 10.3713 6.98532 10.8228 6.58532 11.297C6.4539 11.457 6.2996 11.6228 6.12247 11.7885C6.07421 11.8334 6.04378 11.8943 6.03675 11.9599C5.964 12.6187 6.00262 13.2853 6.15103 13.9313L6.12818 13.9657C5.98306 14.0907 5.84922 14.2285 5.72818 14.377L5.7339 14.3942L5.74533 14.4057L5.76818 14.4113C5.92818 14.4113 6.08247 14.4285 6.24247 14.4742C6.25381 14.4763 6.26425 14.4818 6.27241 14.4899C6.28057 14.4981 6.28607 14.5086 6.28818 14.5199C6.29028 14.5301 6.28982 14.5406 6.28682 14.5506C6.28383 14.5606 6.27841 14.5697 6.27103 14.577C5.8072 15.0435 5.41616 15.5771 5.11105 16.1599C5.03677 16.3027 5.06534 16.3256 5.19104 16.217L5.28819 16.1256C5.33391 16.0799 5.37962 16.0342 5.43676 15.9942C5.57961 15.8912 5.72248 15.777 5.87676 15.6512L6.12818 15.4799L6.3739 15.3084C6.43675 15.2512 6.51103 15.2799 6.52818 15.3656C6.54532 15.457 6.4539 15.6342 6.39675 15.7427L6.3796 15.7827C6.24711 16.0763 6.19203 16.399 6.21961 16.7199C6.23954 16.8907 6.25289 17.0623 6.25961 17.2342C6.26343 17.2396 6.26858 17.244 6.27456 17.2471C6.28055 17.25 6.28721 17.2515 6.2939 17.2512L6.31104 17.2456C6.5295 17.0955 6.73935 16.9334 6.9396 16.7599H6.95102L6.96246 16.7712C7.0596 16.9199 7.12246 17.0799 7.18531 17.2342C7.23887 17.3883 7.30185 17.5391 7.37389 17.6856C7.40817 17.7884 7.44816 17.8912 7.51102 17.9712L7.73959 18.2627C7.96816 18.5655 8.2653 18.7769 8.63672 18.8341C8.6653 18.8341 8.69387 18.8512 8.711 18.8684C8.73387 18.8912 8.73958 18.9141 8.73958 18.9484C8.72815 19.2169 8.751 19.4912 8.81387 19.7656C8.86529 19.9769 8.96244 20.1769 9.05957 20.3826C9.11672 20.4969 9.17386 20.6169 9.22529 20.7426C9.36817 21.1084 9.6367 21.4056 9.91096 21.6569L10.0139 21.7254L10.1852 21.7941C10.4996 21.9369 10.8024 22.0741 11.1681 21.9541C11.3967 21.8854 11.6252 21.7826 11.8539 21.6626C11.9339 21.6169 12.0081 21.6169 12.0824 21.6512L12.5852 21.8912C13.0539 22.1141 13.4996 21.9484 13.9509 21.6969C14.2116 21.5194 14.4285 21.2849 14.5852 21.0112C14.6709 20.7998 14.7566 20.6054 14.8652 20.4112C14.9052 20.3369 14.9338 20.2569 14.9624 20.1769L15.0196 20.0399C15.1624 19.6969 15.1966 19.2856 15.1796 18.9084C15.1778 18.8911 15.1828 18.8737 15.1934 18.86C15.204 18.8461 15.2194 18.8369 15.2366 18.8341C15.7909 18.7884 16.0938 18.3941 16.4024 17.9884L16.4366 17.9427C16.5224 17.8284 16.5852 17.7256 16.6309 17.6227C16.7574 17.3416 16.8774 17.0578 16.9909 16.7712H17.0023C17.0995 16.8055 17.1738 16.8455 17.2538 16.9142C17.3795 17.017 17.5051 17.1142 17.6423 17.2112C17.6595 17.2227 17.6766 17.2227 17.6938 17.2227C17.6998 17.2227 17.7057 17.2203 17.7099 17.216C17.7142 17.2118 17.7166 17.2059 17.7166 17.1999L17.7681 16.6627C17.7875 16.3263 17.7165 15.9908 17.5623 15.6912C17.5019 15.5759 17.4578 15.453 17.4309 15.3256C17.4319 15.3116 17.4375 15.2986 17.4469 15.2882C17.4562 15.2779 17.4686 15.271 17.4823 15.2684C17.5681 15.257 17.7395 15.3827 17.8251 15.4399L17.8366 15.4455C18.2089 15.707 18.5674 15.9874 18.9109 16.2855C18.9566 16.297 18.9681 16.2855 18.9451 16.2399L18.8823 16.1484C18.8595 16.1142 18.8309 16.0799 18.8138 16.0399C18.6881 15.8112 18.5681 15.617 18.4538 15.4455C18.2823 15.177 18.0366 14.9084 17.7281 14.6342C17.6481 14.5599 17.6823 14.4627 17.7851 14.4455C17.9217 14.4218 18.0589 14.4027 18.1966 14.3885C18.2049 14.3818 18.2105 14.3723 18.2126 14.3619C18.2147 14.3515 18.2131 14.3407 18.2081 14.3313C18.1237 14.1789 17.9991 14.0523 17.8481 13.9657C17.8371 13.9597 17.8283 13.9503 17.8231 13.939C17.8181 13.9277 17.8167 13.9149 17.8195 13.9027C17.9166 13.4627 17.9738 13.0113 17.9851 12.5599C17.9851 12.417 17.9681 12.2857 17.9566 12.1599L17.9395 11.9885C17.9314 11.8906 17.8911 11.7982 17.8251 11.7257L17.3509 11.2285C16.9806 10.791 16.5796 10.3805 16.1509 9.99997C16.0996 9.95997 16.0596 9.91997 16.0024 9.89704C15.9977 9.89451 15.9922 9.89371 15.987 9.89477C15.9818 9.89584 15.9772 9.89864 15.9738 9.90277C15.9705 9.90677 15.9688 9.91184 15.9688 9.91704C15.9688 9.92224 15.9705 9.92731 15.9738 9.93131C16.0652 10.16 16.1452 10.377 16.2024 10.5656C16.2138 10.5885 16.2024 10.6056 16.1796 10.6113C16.1657 10.6129 16.1518 10.6112 16.1389 10.6062C16.126 10.6012 16.1144 10.5932 16.1052 10.5828L16.0824 10.56C16.0252 10.5028 15.9452 10.4113 15.8824 10.3885C15.8756 10.3877 15.8688 10.3882 15.8622 10.3901C15.8557 10.392 15.8496 10.3952 15.8442 10.3994C15.8389 10.4037 15.8345 10.4089 15.8313 10.4149C15.828 10.4209 15.826 10.4274 15.8252 10.4342C15.7812 10.612 15.7562 10.794 15.7509 10.977L15.7396 10.9885C15.7333 10.9908 15.7266 10.991 15.7204 10.9889C15.7141 10.9868 15.7088 10.9826 15.7052 10.977C15.5108 10.759 15.3578 10.5073 15.2538 10.2342C15.1178 9.9169 15.0366 9.57878 15.0138 9.23425C14.9886 8.61887 15.1018 8.0057 15.3452 7.43995C15.4596 7.1771 15.5738 6.90853 15.7224 6.6571C16.0569 6.06916 16.4412 5.51094 16.8709 4.98855C16.9281 4.90855 16.9851 4.82855 17.0538 4.75998C17.1166 4.69142 17.1338 4.70285 17.0995 4.78285L17.0595 4.89712C17.0138 5.0057 16.9738 5.11427 16.9109 5.22284C16.8309 5.35997 16.7623 5.50854 16.6938 5.66284C16.5509 5.99996 16.4309 6.30283 16.3281 6.56568C16.0866 7.21048 15.9236 7.88196 15.8424 8.56565L15.8652 8.59423C16.1109 8.83422 16.3509 9.07425 16.5681 9.34851L16.8195 9.65704C17.0081 9.88557 17.2023 10.1142 17.3795 10.3656C17.4023 10.3942 17.4195 10.3942 17.4423 10.3656C17.7623 9.94277 18.0081 9.46278 18.1795 8.93708C18.3338 8.45138 18.4709 7.97709 18.5966 7.50852C18.6081 7.45709 18.6195 7.45709 18.6251 7.50852C18.6366 7.62281 18.6251 7.73138 18.6138 7.83994L18.5966 8.02851C18.5614 8.78032 18.4111 9.52224 18.1509 10.2285L17.8423 10.9657C17.8195 11.0228 17.8251 11.0913 17.8709 11.137C17.9566 11.2285 18.0138 11.3257 18.0538 11.44C18.0595 11.4685 18.0766 11.4856 18.0995 11.5028C18.1031 11.5044 18.107 11.5052 18.1109 11.5052C18.1149 11.5052 18.1187 11.5044 18.1223 11.5028H18.1281L18.1338 11.497C18.2481 11.3028 18.3509 11.1085 18.4195 10.9142L18.5623 10.5885C18.6138 10.4742 18.6651 10.3657 18.7051 10.257L18.9166 9.70277C19.7543 7.23164 20.1075 4.62207 19.9566 2.01716L19.9395 2.00573L19.9223 2.01145C18.2983 2.99017 16.7965 4.15835 15.4481 5.49141L14.9338 6.06283C14.4906 6.56546 14.1072 7.11771 13.7909 7.70852C13.7624 7.76566 13.7052 7.78281 13.6424 7.76566L12.9567 7.63424C12.1281 7.48953 11.278 7.52657 10.4652 7.74281L10.2652 7.78281C10.2532 7.78481 10.2408 7.78245 10.2304 7.77617C10.2199 7.76989 10.212 7.76009 10.2082 7.74852C10.1376 7.5642 10.0476 7.38796 9.93963 7.22282C9.73963 6.91995 9.5167 6.6114 9.26529 6.27996C9.17387 6.16568 9.07672 6.06283 8.97957 5.95996L8.76815 5.71997C8.67672 5.60569 8.57958 5.49712 8.47101 5.38284C8.31673 5.22284 8.15673 5.07998 7.99673 4.93712C7.89388 4.8457 7.78531 4.75427 7.68246 4.65142C7.04933 4.08808 6.3875 3.55786 5.69961 3.06287C5.1736 2.70054 4.64212 2.34621 4.10535 2.00001C4.09198 1.99974 4.07894 2.00417 4.0685 2.01253C4.05806 2.02088 4.05088 2.03262 4.0482 2.04573C3.95122 3.56651 4.03562 5.09343 4.29963 6.59425C4.44795 7.46364 4.65218 8.32255 4.91105 9.16571C5.01391 9.50851 5.19104 9.96557 5.43104 10.56C5.56257 10.8728 5.71531 11.1764 5.88818 11.4685C5.89354 11.471 5.8994 11.4724 5.90533 11.4724C5.91126 11.4724 5.91712 11.471 5.92248 11.4685L5.93961 11.4513L6.12818 11.1428C6.17961 11.057 6.19103 10.9542 6.14533 10.857C5.76625 10.1405 5.53319 9.35584 5.45961 8.54851C5.43652 8.30663 5.41366 8.06473 5.39104 7.82281ZM14.4481 15.2284C15.2366 15.257 15.8596 14.7484 15.8366 13.937C15.8366 13.9142 15.8196 13.9027 15.7966 13.9142L15.7396 13.9313L15.6538 13.9599L14.4652 14.1713C14.4368 14.1747 14.4096 14.1849 14.3857 14.2007C14.362 14.2166 14.3422 14.2378 14.3281 14.2627C14.1625 14.5529 14.01 14.8503 13.8709 15.1542C13.8716 15.1635 13.8745 15.1726 13.8795 15.1806C13.8845 15.1886 13.8913 15.1952 13.8996 15.1999C14.0824 15.21 14.2652 15.2195 14.4481 15.2284ZM8.80815 14.9712C8.65822 14.8416 8.53818 14.681 8.4563 14.5005C8.37442 14.3199 8.33266 14.1238 8.33387 13.9257H8.3453L9.73963 14.177C9.7571 14.1799 9.77376 14.1866 9.78856 14.1965C9.80336 14.2063 9.8159 14.2191 9.82523 14.2342L10.2996 15.0799C10.3055 15.0895 10.3092 15.1002 10.3107 15.1114C10.3122 15.1226 10.3112 15.1339 10.308 15.1447C10.3048 15.1555 10.2992 15.1655 10.2919 15.1739C10.2846 15.1824 10.2755 15.1894 10.2652 15.1942C9.99816 15.23 9.7279 15.2358 9.45963 15.2112C9.22472 15.1916 8.99959 15.1087 8.80815 14.9712ZM11.0767 20.6341C11.2995 20.7692 11.55 20.8517 11.8095 20.8756C12.0688 20.8993 12.3303 20.8636 12.5739 20.7712C12.9224 20.6454 13.2881 20.3369 13.2596 19.9369C13.2424 19.7084 13.0881 19.5655 12.9396 19.4169L12.9281 19.4056C12.8824 19.3541 12.8139 19.3541 12.7567 19.3769C12.5452 19.4569 12.3109 19.5027 12.0481 19.5141C11.7403 19.5248 11.4325 19.4921 11.1339 19.4169C10.951 19.3712 10.8196 19.5656 10.7396 19.7084C10.6882 19.7999 10.6652 19.9027 10.6596 20.0227C10.6539 20.2684 10.8882 20.5312 11.0767 20.6341Z" fill="url(#paint0_linear_364_12497)"/>
<defs>
<linearGradient id="paint0_linear_364_12497" x1="4.00927" y1="8.90714" x2="20.6631" y2="13.6266" gradientUnits="userSpaceOnUse">
<stop stop-color="#042457"/>
<stop offset="0.49" stop-color="#050C22"/>
<stop offset="1" stop-color="#042459"/>
</linearGradient>
</defs>
</svg>

<svg xmlns="http://www.w3.org/2000/svg" width="24" height="24" fill="none" viewBox="0 0 24 24">
    <path fill="url(#JKL__a)" fill-rule="evenodd" d="M5.391 7.823c-.011-.097-.023-.189 0-.286 0-.017.006-.023.017 0a10 10 0 0 1 .292.977c.028.115.062.217.102.326l.058.183c.17.49.417.948.731 1.36h.012l.01-.006c.058-.057.092-.114.138-.177l.126-.166.171-.211.172-.223c.085-.086.16-.171.228-.269l.286-.325.371-.389c.08-.086.069-.188.052-.286a10.7 10.7 0 0 0-.783-2.542c-.143-.326-.286-.658-.457-.972a.1.1 0 0 1 0-.063c0-.034.023-.034.04-.005l.76.994q.308.4.703 1.154.222.413.36.834c.137.423.211.829.217 1.206a3.18 3.18 0 0 1-.715 2.04.02.02 0 0 1-.014.005.02.02 0 0 1-.014-.005.05.05 0 0 1-.017-.04q.003-.257-.069-.503a.074.074 0 0 0-.091-.017 1 1 0 0 0-.143.114q-.154.138-.103-.068.073-.287.211-.549a.02.02 0 0 0-.011-.017H8.02a.3.3 0 0 0-.12.069c-.463.405-.915.857-1.315 1.331a5 5 0 0 1-.463.492.27.27 0 0 0-.085.17 5.9 5.9 0 0 0 .114 1.972l-.023.035a3.3 3.3 0 0 0-.4.411l.006.017.011.012.023.005c.16 0 .314.018.474.063a.06.06 0 0 1 .046.046.06.06 0 0 1-.017.057 6.6 6.6 0 0 0-1.16 1.583c-.074.143-.046.166.08.057l.097-.091c.046-.046.092-.092.149-.132.143-.103.285-.217.44-.343l.251-.171.246-.172c.063-.057.137-.028.154.058.017.091-.074.268-.131.377l-.017.04a1.9 1.9 0 0 0-.16.937q.03.256.04.514.005.009.015.013a.04.04 0 0 0 .019.004l.017-.005a7 7 0 0 0 .629-.486h.011l.011.011c.098.149.16.309.223.463q.081.231.189.452a1 1 0 0 0 .137.285l.229.292c.228.302.525.514.897.571.028 0 .057.017.074.034.023.023.029.046.029.08q-.02.404.074.818c.051.21.148.41.246.617q.087.171.165.36c.143.365.412.663.686.914l.103.068.171.07c.315.142.617.28.983.16.229-.07.457-.172.686-.292a.23.23 0 0 1 .228-.012l.503.24c.469.223.915.057 1.366-.194a2.1 2.1 0 0 0 .634-.686 5 5 0 0 1 .28-.6 1.6 1.6 0 0 0 .097-.234l.058-.137c.142-.343.177-.754.16-1.132a.07.07 0 0 1 .057-.074c.554-.046.857-.44 1.165-.846l.035-.045a1.7 1.7 0 0 0 .194-.32q.189-.421.36-.852h.011a.7.7 0 0 1 .252.143c.125.103.251.2.388.297.018.012.035.012.052.012a.02.02 0 0 0 .016-.007.02.02 0 0 0 .007-.016l.051-.537a1.9 1.9 0 0 0-.206-.972 1.4 1.4 0 0 1-.131-.365.064.064 0 0 1 .051-.057c.086-.012.258.114.343.17l.012.006q.558.393 1.074.84c.046.012.057 0 .034-.045l-.063-.092c-.023-.034-.051-.068-.068-.108a8 8 0 0 0-.36-.594 4 4 0 0 0-.726-.812c-.08-.074-.046-.171.057-.189q.205-.035.412-.056a.046.046 0 0 0 .011-.058.96.96 0 0 0-.36-.365.06.06 0 0 1-.025-.027.06.06 0 0 1-.003-.036c.097-.44.154-.892.165-1.343 0-.143-.017-.274-.028-.4l-.018-.171a.45.45 0 0 0-.114-.263l-.474-.498q-.556-.657-1.2-1.228c-.051-.04-.091-.08-.149-.103a.023.023 0 0 0-.028.006.02.02 0 0 0-.005.014q0 .008.005.014c.091.229.171.446.228.635.012.022 0 .04-.022.045a.09.09 0 0 1-.075-.028l-.023-.023c-.057-.057-.137-.149-.2-.171a.05.05 0 0 0-.057.045 2.6 2.6 0 0 0-.074.543l-.011.011a.03.03 0 0 1-.035-.011 2.4 2.4 0 0 1-.451-.743 3 3 0 0 1-.24-1 4.1 4.1 0 0 1 .331-1.794c.115-.263.229-.531.377-.783q.504-.883 1.149-1.668c.057-.08.114-.16.183-.229.063-.069.08-.057.046.023l-.04.114c-.046.109-.086.217-.15.326-.08.137-.148.286-.216.44q-.213.507-.366.903a8.6 8.6 0 0 0-.486 2l.023.028c.246.24.486.48.703.755l.252.308c.188.229.382.457.56.709q.031.042.062 0a4.8 4.8 0 0 0 .738-1.429c.154-.486.29-.96.417-1.428q.018-.078.028 0c.012.114 0 .222-.011.33l-.017.19a7.4 7.4 0 0 1-.446 2.2l-.309.737a.16.16 0 0 0 .029.171.8.8 0 0 1 .183.303c.006.029.023.046.046.063a.03.03 0 0 0 .022 0h.006l.006-.006c.114-.194.217-.389.285-.583l.143-.325c.052-.115.103-.223.143-.332l.212-.554a20.3 20.3 0 0 0 1.04-7.686l-.018-.011-.017.005a24 24 0 0 0-4.474 3.48l-.514.572a8.7 8.7 0 0 0-1.143 1.646c-.029.057-.086.074-.149.057l-.685-.132a5.8 5.8 0 0 0-2.492.109l-.2.04a.05.05 0 0 1-.057-.034q-.105-.278-.268-.526a18 18 0 0 0-.675-.943c-.091-.114-.188-.217-.285-.32l-.212-.24a5 5 0 0 0-.297-.337c-.154-.16-.314-.303-.474-.446-.103-.091-.212-.183-.315-.286A25 25 0 0 0 5.7 3.063 63 63 0 0 0 4.105 2a.06.06 0 0 0-.057.046A19.2 19.2 0 0 0 4.3 6.594q.222 1.306.611 2.572c.103.343.28.8.52 1.394q.198.47.457.909a.04.04 0 0 0 .034 0l.018-.018.188-.308a.3.3 0 0 0 .017-.286 6.1 6.1 0 0 1-.685-2.308zm9.057 7.405c.789.029 1.412-.48 1.389-1.291 0-.023-.017-.034-.04-.023l-.057.017-.086.029-1.189.211a.18.18 0 0 0-.137.092q-.248.435-.457.891a.06.06 0 0 0 .029.046q.273.016.548.028m-5.64-.257a1.37 1.37 0 0 1-.474-1.045h.011l1.395.251a.13.13 0 0 1 .085.057l.475.846a.08.08 0 0 1-.035.114 3.6 3.6 0 0 1-.805.017 1.3 1.3 0 0 1-.652-.24m2.269 5.663a1.72 1.72 0 0 0 1.497.137c.348-.126.714-.434.686-.834-.018-.229-.172-.372-.32-.52l-.012-.011c-.046-.052-.114-.052-.171-.03q-.316.12-.709.138a3.3 3.3 0 0 1-.914-.097c-.183-.046-.314.149-.394.291a.7.7 0 0 0-.08.315c-.006.245.228.508.417.611" clip-rule="evenodd"/>
    <defs>
        <linearGradient id="JKL__a" x1="4.009" x2="20.663" y1="8.907" y2="13.627" gradientUnits="userSpaceOnUse">
            <stop stop-color="#042457"/>
            <stop offset=".49" stop-color="#050C22"/>
            <stop offset="1" stop-color="#042459"/>
        </linearGradient>
    </defs>
</svg>
